X: 27294
T: Miss Wedderburn's
R: reel
M: 4/4
K: Amajor
F|:{^D}E2 EF EFAc|BAcB AFFA|{^D}E2 EF EFAc|1 BABc (3AAA AF:|2 BABc A2 ((3ABc)||
d2 fd c2 ec|BAcB AFFA|((3Bcd) fd c2 ec|BABc (3AAA Ac|
dfdf ceAc|BAcB AFF=g|fefg abaf|ecBc (3AAA A||

